X: 1
T:Man of Constant Sorrow
C:Traditional, Arr. Jay Buckey
S:jaybuckey.com, Tom Skinner
M:4/4
L:1/4
K:G
z g g/2B/2c/2B/2 | "G"g/2g/2g/2g/2 g/2g/2g/2g/2 |
g/2_b/2b/2b/2 b/2b/2b/2b/2 | _b/2g/2g/2g/2 g/2=f/2d/2c/2 |
_B/2G/2G/2G/2 G/2G/2G/2G/2 | "C"c/2c/2c/2c/2 c/2c/2c/2c/2 |
c/2c/2c/2c/2 c/2B/2c/2d/2 | "D"d/2d/2d/2d/2 d/2=f/2d/2c/2 |
d/2d/2d/2d/2 d/2c/2 _B | G "G"G G/2G/2G/2G/2 | G
G B c | "D"d d3- | d d c _B | "G"G4 | z4 |:
